packages/design-system/src/icons/assets/ic_float_delete_24.svg

<svg width="24" height="24" viewBox="0 0 24 24" fill="none" xmlns="http://www.w3.org/2000/svg">
<g id="ic_float_delete_24">
<path id="Vector" d="M8.33333 11.6667C8.33333 12.0333 8.63333 12.3333 9 12.3333H14.3333C14.7 12.3333 15 12.0333 15 11.6667C15 11.3 14.7 11 14.3333 11H9C8.63333 11 8.33333 11.3 8.33333 11.6667ZM11.6667 5C7.98667 5 5 7.98667 5 11.6667C5 15.3467 7.98667 18.3333 11.6667 18.3333C15.3467 18.3333 18.3333 15.3467 18.3333 11.6667C18.3333 7.98667 15.3467 5 11.6667 5ZM11.6667 17C8.72667 17 6.33333 14.6067 6.33333 11.6667C6.33333 8.72667 8.72667 6.33333 11.6667 6.33333C14.6067 6.33333 17 8.72667 17 11.6667C17 14.6067 14.6067 17 11.6667 17Z" fill="#121212"/>
</g>
</svg>

<svg xmlns="http://www.w3.org/2000/svg" width="24" height="24" fill="none"><path fill="#121212" d="M8.333 11.667c0 .366.3.666.667.666h5.333c.367 0 .667-.3.667-.666S14.7 11 14.333 11H9c-.367 0-.667.3-.667.667M11.667 5A6.67 6.67 0 0 0 5 11.667a6.67 6.67 0 0 0 6.667 6.666 6.67 6.67 0 0 0 6.666-6.666A6.67 6.67 0 0 0 11.667 5m0 12a5.34 5.34 0 0 1-5.334-5.333 5.34 5.34 0 0 1 5.334-5.334A5.34 5.34 0 0 1 17 11.667 5.34 5.34 0 0 1 11.667 17"/></svg>
